icons/1_Primary/ESET.svg

<svg xmlns="http://www.w3.org/2000/svg" viewBox="0 0 1024 1024">
   <circle cx="512" cy="512" r="512" style="fill:#0096a1"/>
   <path d="M453.36 544.63c-8.57 0-17.25-.21-17.66-11.76h-32.61c.25 22.74 11 30.18 30.95 31.76 6 .46 12.58.44 19.32.44 27.48 0 50.26-4.59 50.26-34.37 0-28.41-14.78-30.38-50.29-31.17-17.61-.42-18.64-4.1-18.64-9.93 0-7 .77-9.16 18.67-9.16 6.54 0 13.14.6 14.59 8.72h30.72V485c0-24.72-25.89-25-45.32-25-29.17 0-50.27.65-50.27 33.38 0 20.57 7.1 30.16 50.27 30.16 3.9 0 10.09-.19 13.73 1.38 3.37 1.45 4.94 4.44 4.94 9.78 0 9-3.29 9.94-18.67 9.94m-122.53-62.39c11.74 0 18.07 1.16 18.07 17.29v.78h-35.17c.42-13.79 3.22-18.07 17.1-18.07Zm-49.66 30.4c0 38.57 9.67 52.42 50.27 52.42 15.08 0 27.63-1.18 36.37-6 8.49-4.94 13.52-13.35 13.69-28.35h-32c-.37 11-7.82 12.14-18.07 12.14-14.78 0-17.7-6.06-17.7-24.44v-.77h67.76v-5c0-42.16-11.38-52.66-50.07-52.66-41.41 0-50.27 12.86-50.27 52.66Zm318.73-31.46c-14.34 0-17 4.64-17.46 18.73h35.86v-1.14c0-16.36-6.59-17.59-18.41-17.59m150.92 2.23H727v80.5h-32.6v-80.5h-23.81V460h80.22Zm-100.57 33.14h-67.76v1.1c0 18.43 2.91 24.71 18 24.71 10.13 0 17.9-1.09 18.4-12.1h31.36C650 545 645 553.19 636.69 558c-8.66 4.8-21.14 6-36.22 6-40.44 0-49.95-13.68-49.95-52.1 0-39.62 8.74-52.35 49.95-52.35 38.51 0 49.75 10.4 49.75 52.35v4.67Zm-126.15 86.17H304.52c-17 0-36.9-8.38-47.24-19.49-16.37-17.54-19.92-45-19.92-71.23s3.56-53.74 19.92-71.3c10.35-11.11 30.23-19.43 47.24-19.48h219.56v181.49ZM792 438.34c-13-21.36-37.91-36.41-67.1-36.41H299.09c-29.2 0-54.09 15.07-67.09 36.41-11.44 19.82-14 52.23-14 73.67s2.54 53.78 14 73.62c13 21.37 37.9 36.44 67.11 36.44h425.77c29.19 0 54.13-15.07 67.1-36.44 11.43-19.84 14-52.23 14-73.62s-2.58-53.86-13.98-73.67Z" style="fill:#fff"/>
</svg>

<svg width="1024" height="1024" viewBox="0 0 1024 1024" fill="none" xmlns="http://www.w3.org/2000/svg">
<g clip-path="url(#clip0_2_2106)">
<path d="M512 1024C794.77 1024 1024 794.77 1024 512C1024 229.23 794.77 0 512 0C229.23 0 0 229.23 0 512C0 794.77 229.23 1024 512 1024Z" fill="#73ADA4"/>
<path d="M453.36 544.63C444.79 544.63 436.11 544.42 435.7 532.87H403.09C403.34 555.61 414.09 563.05 434.04 564.63C440.04 565.09 446.62 565.07 453.36 565.07C480.84 565.07 503.62 560.48 503.62 530.7C503.62 502.29 488.84 500.32 453.33 499.53C435.72 499.11 434.69 495.43 434.69 489.6C434.69 482.6 435.46 480.44 453.36 480.44C459.9 480.44 466.5 481.04 467.95 489.16H498.67V485C498.67 460.28 472.78 460 453.35 460C424.18 460 403.08 460.65 403.08 493.38C403.08 513.95 410.18 523.54 453.35 523.54C457.25 523.54 463.44 523.35 467.08 524.92C470.45 526.37 472.02 529.36 472.02 534.7C472.02 543.7 468.73 544.64 453.35 544.64M330.82 482.25C342.56 482.25 348.89 483.41 348.89 499.54V500.32H313.72C314.14 486.53 316.94 482.25 330.82 482.25ZM281.16 512.65C281.16 551.22 290.83 565.07 331.43 565.07C346.51 565.07 359.06 563.89 367.8 559.07C376.29 554.13 381.32 545.72 381.49 530.72H349.49C349.12 541.72 341.67 542.86 331.42 542.86C316.64 542.86 313.72 536.8 313.72 518.42V517.65H381.48V512.65C381.48 470.49 370.1 459.99 331.41 459.99C290 459.99 281.14 472.85 281.14 512.65H281.16ZM599.89 481.19C585.55 481.19 582.89 485.83 582.43 499.92H618.29V498.78C618.29 482.42 611.7 481.19 599.88 481.19M750.8 483.42H727V563.92H694.4V483.42H670.59V460H750.81L750.8 483.42ZM650.23 516.56H582.47V517.66C582.47 536.09 585.38 542.37 600.47 542.37C610.6 542.37 618.37 541.28 618.87 530.27H650.23C650 545 645 553.19 636.69 558C628.03 562.8 615.55 564 600.47 564C560.03 564 550.52 550.32 550.52 511.9C550.52 472.28 559.26 459.55 600.47 459.55C638.98 459.55 650.22 469.95 650.22 511.9V516.57L650.23 516.56ZM524.08 602.73H304.52C287.52 602.73 267.62 594.35 257.28 583.24C240.91 565.7 237.36 538.24 237.36 512.01C237.36 485.78 240.92 458.27 257.28 440.71C267.63 429.6 287.51 421.28 304.52 421.23H524.08V602.72V602.73ZM792 438.34C779 416.98 754.09 401.93 724.9 401.93H299.09C269.89 401.93 245 417 232 438.34C220.56 458.16 218 490.57 218 512.01C218 533.45 220.54 565.79 232 585.63C245 607 269.9 622.07 299.11 622.07H724.88C754.07 622.07 779.01 607 791.98 585.63C803.41 565.79 805.98 533.4 805.98 512.01C805.98 490.62 803.4 458.15 792 438.34Z" fill="white"/>
</g>
<defs>
<clipPath id="clip0_2_2106">
<rect width="1024" height="1024" fill="white"/>
</clipPath>
</defs>
</svg>
